48x48/apps/allegorithmic-Substance_Painter.svg

<svg xmlns="http://www.w3.org/2000/svg" width="48" height="48"><circle style="opacity:.2" cx="24.5" cy="5.5" r="2.5"/><circle style="opacity:.2" cx="24" cy="26" r="17"/><circle style="opacity:.2" cx="41" cy="40" r="4"/><circle style="opacity:.2" cx="6" cy="40" r="2"/><circle style="fill:#e2222f" cx="24.5" cy="4.5" r="2.5"/><circle style="fill:#e2222f" cx="24" cy="25" r="17"/><circle style="fill:#e2222f" cx="41" cy="39" r="4"/><circle style="fill:#e2222f" cx="6" cy="39" r="2"/><path style="opacity:.2" d="m24 13-12 6v6l17.455 5.818L24 33.5 17 30v-1.333L12 27v6l12 6 12-6v-6l-17.455-5.818L24 18.5l7 3.5v1.333L36 25v-6z"/><path style="fill:#f4f4f7" d="m24 12-12 6v6l17.455 5.818L24 32.5 17 29v-1.333L12 26v6l12 6 12-6v-6l-17.455-5.818L24 17.5l7 3.5v1.333L36 24v-6z"/><path style="opacity:.2;fill:#f4f4f7" d="M24.5 2A2.5 2.5 0 0 0 22 4.5a2.5 2.5 0 0 0 .053.496A2.5 2.5 0 0 1 24.5 3a2.5 2.5 0 0 1 2.447 2.004A2.5 2.5 0 0 0 27 4.5 2.5 2.5 0 0 0 24.5 2zM24 8A17 17 0 0 0 7 25a17 17 0 0 0 .021.58A17 17 0 0 1 24 9a17 17 0 0 1 16.979 16.42A17 17 0 0 0 41 25 17 17 0 0 0 24 8zM41 35a4 4 0 0 0-4 4 4 4 0 0 0 .035.494A4 4 0 0 1 41 36a4 4 0 0 1 3.965 3.506A4 4 0 0 0 45 39a4 4 0 0 0-4-4zM6 37a2 2 0 0 0-2 2 2 2 0 0 0 .064.504A2 2 0 0 1 6 38a2 2 0 0 1 1.936 1.496A2 2 0 0 0 8 39a2 2 0 0 0-2-2z"/></svg>

<svg xmlns="http://www.w3.org/2000/svg" width="48" height="48" version="1.1">
 <circle style="opacity:0.2" cx="24.5" cy="5.5" r="2.5"/>
 <circle style="opacity:0.2" cx="24" cy="26" r="17"/>
 <circle style="opacity:0.2" cx="41" cy="40" r="4"/>
 <circle style="opacity:0.2" cx="6" cy="40" r="2"/>
 <circle style="fill:#e2222f" cx="24.5" cy="4.5" r="2.5"/>
 <circle style="fill:#e2222f" cx="24" cy="25" r="17"/>
 <circle style="fill:#e2222f" cx="41" cy="39" r="4"/>
 <circle style="fill:#e2222f" cx="6" cy="39" r="2"/>
 <path style="opacity:0.2" d="M 24,13 12,19 V 25 L 29.455,30.818 24,33.5 17,30 V 28.667 L 12,27 V 33 L 24,39 36,33 V 27 L 18.545,21.182 24,18.5 31,22 V 23.333 L 36,25 V 19 Z"/>
 <path style="fill:#f4f4f7" d="M 24,12 12,18 V 24 L 29.455,29.818 24,32.5 17,29 V 27.667 L 12,26 V 32 L 24,38 36,32 V 26 L 18.545,20.182 24,17.5 31,21 V 22.333 L 36,24 V 18 Z"/>
 <path style="opacity:0.2;fill:#f4f4f7" d="M 24.5 2 A 2.5 2.5 0 0 0 22 4.5 A 2.5 2.5 0 0 0 22.053 4.9961 A 2.5 2.5 0 0 1 24.5 3 A 2.5 2.5 0 0 1 26.947 5.0039 A 2.5 2.5 0 0 0 27 4.5 A 2.5 2.5 0 0 0 24.5 2 z"/>
 <path style="opacity:0.2;fill:#f4f4f7" d="M 24 8 A 17 17 0 0 0 7 25 A 17 17 0 0 0 7.0215 25.58 A 17 17 0 0 1 24 9 A 17 17 0 0 1 40.979 25.42 A 17 17 0 0 0 41 25 A 17 17 0 0 0 24 8 z"/>
 <path style="opacity:0.2;fill:#f4f4f7" d="M 41 35 A 4 4 0 0 0 37 39 A 4 4 0 0 0 37.035 39.494 A 4 4 0 0 1 41 36 A 4 4 0 0 1 44.965 39.506 A 4 4 0 0 0 45 39 A 4 4 0 0 0 41 35 z"/>
 <path style="opacity:0.2;fill:#f4f4f7" d="M 6 37 A 2 2 0 0 0 4 39 A 2 2 0 0 0 4.0645 39.504 A 2 2 0 0 1 6 38 A 2 2 0 0 1 7.9355 39.496 A 2 2 0 0 0 8 39 A 2 2 0 0 0 6 37 z"/>
</svg>
